svg/m/BQ-SA.svg

<svg width="20" height="15" viewBox="0 0 20 15" fill="none" xmlns="http://www.w3.org/2000/svg">
<g clip-path="url(#clip0_270_60836)">
<rect width="20" height="15" fill="white"/>
<path fill-rule="evenodd" clip-rule="evenodd" d="M0 0H20V15H0V0Z" fill="white"/>
<path fill-rule="evenodd" clip-rule="evenodd" d="M0 7.29V0H10L0 7.29Z" fill="#F00000"/>
<path fill-rule="evenodd" clip-rule="evenodd" d="M20 7.29V0H10L20 7.29Z" fill="#F00000"/>
<path fill-rule="evenodd" clip-rule="evenodd" d="M0 7.29V15H10L0 7.29Z" fill="#00268D"/>
<path fill-rule="evenodd" clip-rule="evenodd" d="M20 7.29002V15.21L10 15L20 7.29002Z" fill="#00268D"/>
<path fill-rule="evenodd" clip-rule="evenodd" d="M9.82124 8.91017L7.62283 10.4771L8.42954 7.88876L6.25 6.30437H8.96536L9.82124 3.75L10.7284 6.30437H13.3699L11.2093 7.88876L12.0305 10.4771L9.82124 8.91017Z" fill="#FEDA00"/>
</g>
<defs>
<clipPath id="clip0_270_60836">
<rect width="20" height="15" fill="white"/>
</clipPath>
</defs>
</svg>

<svg width="20" height="15" fill="none" xmlns="http://www.w3.org/2000/svg">
  <mask id="a" maskUnits="userSpaceOnUse" x="0" y="0" width="20" height="15">
    <path fill="#fff" d="M0 0h20v15H0z"/>
  </mask>
  <g mask="url(#a)" fill-rule="evenodd" clip-rule="evenodd">
    <path d="M0 0h20v15H0V0z" fill="#fff"/>
    <path d="M0 7.29V0h10L0 7.29zm20 0V0H10l10 7.29z" fill="#F00000"/>
    <path d="M0 7.29V15h10L0 7.29zm20 0v7.92L10 15l10-7.71z" fill="#00268D"/>
    <path d="M9.821 8.91l-2.198 1.567.807-2.588-2.18-1.585h2.715l.856-2.554.907 2.554h2.642L11.21 7.89l.82 2.588L9.822 8.91z" fill="#FEDA00"/>
  </g>
</svg>
